svgs/thin/code-fork.svg

<svg xmlns="http://www.w3.org/2000/svg" viewBox="0 0 448 512"><!--! Font Awesome Pro 6.1.1 by @fontawesome - https://fontawesome.com License - https://fontawesome.com/license (Commercial License) Copyright 2022 Fonticons, Inc. --><path d="M128 64C128 96.64 103.6 123.6 72 127.5V192C72 222.9 97.07 248 128 248H320C350.9 248 376 222.9 376 192V127.5C344.4 123.6 320 96.64 320 64C320 28.65 348.7 0 384 0C419.3 0 448 28.65 448 64C448 96.64 423.6 123.6 392 127.5V192C392 231.8 359.8 264 320 264H232V384H224H216V264H128C88.24 264 56 231.8 56 192V127.5C24.43 123.6 0 96.64 0 64C0 28.65 28.65 0 64 0C99.35 0 128 28.65 128 64zM64 112C90.51 112 112 90.51 112 64C112 37.49 90.51 16 64 16C37.49 16 16 37.49 16 64C16 90.51 37.49 112 64 112zM384 112C410.5 112 432 90.51 432 64C432 37.49 410.5 16 384 16C357.5 16 336 37.49 336 64C336 90.51 357.5 112 384 112zM288 448C288 483.3 259.3 512 224 512C188.7 512 160 483.3 160 448C160 412.7 188.7 384 224 384C259.3 384 288 412.7 288 448zM224 400C197.5 400 176 421.5 176 448C176 474.5 197.5 496 224 496C250.5 496 272 474.5 272 448C272 421.5 250.5 400 224 400z"/></svg>

<svg xmlns="http://www.w3.org/2000/svg" viewBox="0 0 448 512"><!--! Font Awesome Pro 6.4.2 by @fontawesome - https://fontawesome.com License - https://fontawesome.com/license (Commercial License) Copyright 2023 Fonticons, Inc. --><path d="M64 112a48 48 0 1 0 0-96 48 48 0 1 0 0 96zm64-48c0 32.6-24.4 59.6-56 63.5V192c0 30.9 25.1 56 56 56H320c30.9 0 56-25.1 56-56V127.5c-31.6-3.9-56-30.9-56-63.5c0-35.3 28.7-64 64-64s64 28.7 64 64c0 32.6-24.4 59.6-56 63.5V192c0 39.8-32.2 72-72 72H232V384h-8-8V264H128c-39.8 0-72-32.2-72-72V127.5C24.4 123.6 0 96.6 0 64C0 28.7 28.7 0 64 0s64 28.7 64 64zm96 448a64 64 0 1 1 0-128 64 64 0 1 1 0 128zM384 112a48 48 0 1 0 0-96 48 48 0 1 0 0 96zM272 448a48 48 0 1 0 -96 0 48 48 0 1 0 96 0z"/></svg>
